!!!COM: Bach, Johann Sebastian
!!!OPR: Joh. Seb. Bachs vierstimmige Choralges‰nge
!!!XEN: Four-part Chorales
!!!OTL: 53. Erstanden ist der heil'ge Christ
!!!SCT: BWV 306
!!!SCA: Thematisch-systematisches Verzeichnis der musikalischen Werke Johann Sebastian Bach: Bach-Werke-Verzeichnis (Schmieder)
!!!YOR: Bach Gesellschaft Edition xxxix
!!!ENC: Steven Rasmussen
!!!CDT: 1685/3//-1750/7/28/
!!!OCY: Deutschland
!!!YEC: Copyright (c) 1994, 2000 Center for Computer Assisted Research in the Humanities
!!!YEM: Rights to all derivative editions reserved
!!!YEN: United States of America
**kern	**silbe	**kern	**silbe	**kern	**silbe	**kern	**silbe
*I:[BASSO]	*I:[BASSO]	*I:[TENORE]	*I:[TENORE]	*I:[ALTO]	*I:[ALTO]	*I:[SOPRANO]	*I:[SOPRANO]
*clefF4	*	*clefGv2	*	*clefG2	*	*clefG2	*
*k[b-]	*	*k[b-]	*	*k[b-]	*	*k[b-]	*
*F:	*	*F:	*	*F:	*	*F:	*
*M3/4	*	*M3/4	*	*M3/4	*	*M3/4	*
4FF	.	4A	Er-	4c	Er-	4f	Er-
=1	=1	=1	=1	=1	=1	=1	=1
4.F	.	8AL	-stan-	4c	-stan-	4.f	-stan-
.	.	8B-	.	.	.	.	.
.	.	8A	.	8dL	-den	.	.
(8E	.	8GJ	.	8eJ	.	8gL	-den
4D)	.	4F	-den	[4f	ist	8a	.
.	.	.	.	.	.	8b-J	.
=2	=2	=2	=2	=2	=2	=2	=2
4.C	.	2G	ist	4f]	.	2cc	ist
.	.	.	.	8eL	der	.	.
8DL	.	.	.	8fJ	.	.	.
8E	.	4c	der	[4g	heil'-	4g	der
8CJ	.	.	.	.	.	.	.
=3	=3	=3	=3	=3	=3	=3	=3
4.F	.	2c	heil'-	8gL]	.	2a	heil'-
.	.	.	.	8eJ	.	.	.
.	.	.	.	2f	-ge	.	.
(8E	.	.	.	.	.	.	.
4D)	.	4d	-ge	.	.	4bn	-ge
=4	=4	=4	=4	=4	=4	=4	=4
2C;	.	2G;	.	(4f	.	2cc;	Christ,
.	.	.	.	4e;)	.	.	.
4E	.	4c	.	4g	.	4b-	al-
=5	=5	=5	=5	=5	=5	=5	=5
4.F	.	8cL	.	4g	.	4.a	-le-
.	.	8AJ	.	.	.	.	.
.	.	2d	.	2f	.	.	.
(8E	.	.	.	.	.	8gL	-lu-
4D)	.	.	.	.	.	8a	.
.	.	.	.	.	.	8b-J	.
=6	=6	=6	=6	=6	=6	=6	=6
4.E	.	8cL	.	8gL	.	2cc	-ja,
.	.	8dJ	.	8f	.	.	.
.	.	4e	.	8gJ	.	.	.
(8F#	.	.	.	4a	al-	.	.
4G)	.	4d	al-	.	.	4b-	al-
.	.	.	.	[8g	.	.	.
=7	=7	=7	=7	=7	=7	=7	=7
4.D	.	4d	-le-	8gL]	.	2a	-le-
.	.	.	.	16fL	.	.	.
.	.	.	.	16eJJ	.	.	.
.	.	4A	-lu-	4.f	-le-	.	.
(8C	.	.	.	.	.	.	.
4BB-)	.	4D	.	.	.	4g	-lu-
.	.	.	.	16eLL	-lu-	.	.
.	.	.	.	16dJJ	.	.	.
=8	=8	=8	=8	=8	=8	=8	=8
2AA;	.	2E;	-ja!	2c#;	-ja!	2a;	-ja!
4D	.	4F	Der	4d	Der	4a	Der
=9	=9	=9	=9	=9	=9	=9	=9
8AL	.	4A	al-	4.e	al-	2cc	al-
8AAJ	.	.	.	.	.	.	.
8AL	.	2c	-ler	.	.	.	.
8G	.	.	.	8f	-ler	.	.
8F	.	.	.	[4g	Welt	4b-	-ler
8EJ	.	.	.	.	.	.	.
=10	=10	=10	=10	=10	=10	=10	=10
8FL	Welt	8cL	Welt	4g]	.	2a	Welt
8FFJ	.	8A	.	.	.	.	.
8FL	ein	8d	.	4f	ein	.	.
8E	.	8cJ	.	.	.	.	.
8D	.	4B-	ein	[4e	Tr√∂-	4g	ein
8C#J	.	.	.	.	.	.	.
=11	=11	=11	=11	=11	=11	=11	=11
(4D	Tr√∂-	8AL	Tr√∂-	(4e]	.	2f	Tr√∂-
.	.	8F	.	.	.	.	.
4BB-)	.	8B-	.	4d)	.	.	.
.	.	8AJ	.	.	.	.	.
4C	-ster	4G	-ster	8cL	-ster	4e	-ster
.	.	.	.	8B-J	.	.	.
=12	=12	=12	=12	=12	=12	=12	=12
2D;	.	2F;	.	2A;	.	2f;	ist,
8DL	.	4A	.	4d	.	4f	al-
8CJ	.	.	.	.	.	.	.
=13	=13	=13	=13	=13	=13	=13	=13
4.BB-	.	(4G	.	4d	.	8gL	-le-
.	.	.	.	.	.	8f	.
.	.	4c)	.	8eL	.	8g	.
(8AA	.	.	.	8fJ	.	8aJ	.
4GG)	.	4B-	.	8dL	.	4b-	-lu-
.	.	.	.	8eJ	.	.	.
=14	=14	=14	=14	=14	=14	=14	=14
8FFL	.	8AL	.	2f	.	2a	-ja,
8GG	.	8B-J	.	.	.	.	.
8AA	.	4c	.	.	.	.	.
8BB-J	.	.	.	.	.	.	.
4C	.	8cL	al-	[4e	al-	4g	al-
.	.	8B-J	.	.	.	.	.
=15	=15	=15	=15	=15	=15	=15	=15
8DL	.	4A	-le-	4e]	.	2f	-le-
8CJ	.	.	.	.	.	.	.
4BB-	.	8B-L	.	4d	-le-	.	.
.	.	8AJ	.	.	.	.	.
4C	.	8GL	-lu-	4c	-lu-	4e	-lu-
.	.	8B-J	.	.	.	.	.
=16	=16	=16	=16	=16	=16	=16	=16
2.FF;/xx	.	2.A;/xx	-ja!	2.c;/xx	-ja!	2.f;/xx	-ja!
==|!	==|!	==|!	==|!	==|!	==|!	==|!	==|!
*-	*-	*-	*-	*-	*-	*-	*-
!!!RWG: Key is interpreted using the Humdrum key tool.
!!!END: 1994/05/25
!!!EMD: Converted from MuseData to Humdrum Dec 19, 2000, by Andreas Kornstaedt using muse2kern.
!!!EED: Craig Stuart Sapp
!!!EEV: 2024/03/31
!!!ONB: Some non-unicode characters
